X: 25
T: Rigadoon
%R: rigadoon, march, reel
B: Stewart "A Select Collection of Airs, Jigs, Marches and Reels", ca.1784, p.12 #24
F: http://imslp.org/wiki/A_Select_Collection_of_Airs,_Jigs,_Marches_and_Reels_%28Various%29
Z: 2017 John Chambers <jc:trillian.mit.edu>
M: C|
L: 1/8
K: G
(Tfe) |\
d2D2 dfed | e2E2 egfe |\
fefd bagf | {f2}e6 ::\
a2 | b2G2 bd'c'b |
a2F2 ac'ba |\
g2E2 gbag | fdef gabc' |\
d'fed A2Tc2 | d6 :|

%%sep 1 1 500
%%sep 1 1 500

